X:1
T:Piano Trio
T:Piano Trio
T:Op.1, No. 1
T:César-Auguste-Jean-Guillaume-Hubert Franck
C:César-Auguste-Jean-Guillaume-Hubert Franck
%%score ( 1 2 ) 3 { ( 4 6 ) | ( 5 7 ) }
L:1/8
Q:1/4=69
M:4/4
K:A
V:1 treble nm="Violine."
V:2 treble 
V:3 bass nm="Violoncello."
V:4 treble nm="Klavier."
V:6 treble 
V:5 bass 
V:7 bass 
V:1
"^Andante con moto." z8 | z8 | z8 | z8 | z8 | z8 | z8 | z8 | z8 | z8 | z8 | z8 | z8 | z8 | z8 | %15
 z8 | z8 | z2"_espress."!p! c4 dc |!<(! c2!<)!!>(! B4!>)! cB | A>B c2 z4 | z8 | z2 (F4 B2) | %22
 A>G F4 F>(F |!p! A8) | z8 | z2"_cresc."!<(! F4 (F2 | A2) G4 G2!<)! |!f! B3 A A4 | z8 | %29
 z2 F2 d2!>(! cB | AG F4!>)! F>(F | A4) z4 |!p!"_con duolo" f4 c4 | B6 (cd) | d6 BG | f4 (F2 G2) | %36
 A6 (.B.c) | d4 (c2 B2) | d4 (c2 B2) |!<(!!>(! c8!<)!!>)! |!p! e4 B4 | A6 Bc | c6 AF | e4 (E2 F2) | %44
 G6 AB | c4 B2 A2 | c4 B2 ^A2 | B8 |"_dolce espress." B6 GF | E6 GB | e4 (e3 ^d) | e8 | %52
 e6"_cresc."!<(! cB | A6 ce | a4 (a3 g)!<)! |!<(! (f6 ^^f2)!<)! |!f! g4 ^d4 | c6 ^de | e6 c^A | %59
 g4 G2"_dim."!>(! ^A2 | ^B6 c^d | (^d4 c2 ^B2)!>)! |!p! (^d4 c2 ^B2) | c6 c2 | %64
 d4- (6:4:6d(!tenuto!c!tenuto!A!tenuto!F!tenuto!D)(A, | C6) c2 | c4 ^B2 g2 | g6 c'2 | %68
"^cresc."!<(! d'4- (6:4:6d'c'afdA | c6 c'2 | c'4 ^b2 g'2 | g'8!<)! |!f! a'>aa>c'c'>ff>a | %73
 a>cc>ff>AA>c | c>BB>gg>BB>b | a>c'c'>ff>aa>c | c>ff>AA>cc>F | F>BB>FF>dd>B | B>AA>GG>FF>F | %79
!f! A8 |"_G.P." z8 |!p!!>(!!<(! !fermata!f'8-!>)!!<)! ||[K:F#] f' z z2 z4 | z8 | z8 | z8 | z8 | %87
 z8 | z8 | z8 | z8 | z8 | z8 | z8 | z8 | z8 | z8 | z8 |!pp!"_sans aucune nuance" (a2 b2 c'2 d'2 | %99
 e'2 f'2 e'2 d'2 | c'2 b2 a2{/c'} b2 | a2 g2 f4) | (a2 b2 c'2 d'2 | e'2{/g'} f'2 e'2 d'2 | %104
 c'2 b2 a2{/c'} b2 | a2 g2 f4) | (g2 a2 b4) | a2 g2 f4 | g2 a2 b4 | a2 g2 f4 | g2 a2 f4 | %111
 g2 a2 f4 | g2 a2 d2 e2 | f8 | z8 | z8 | z8 | z8 | z8 | z8 | (c2 d2 e2"_cresc." f2 | %121
 g2{/b} =a2 g2 f2) | [=A^b]8- |!<(! [Ab]8-!<)! |!ff!!>(! [Ab]8-!>)! |"^""^"!>(! [Ab]8!>)! || %126
[K:A]!p! [Ac']8 | [Af]8 | f'4 ^e'4 | [Af']8 | [Af']8 | [db]8 | c'6 f>a | c'6"_dim." f>a | %134
 (c'2!pp! f>a c'2 f>a) | [Ac']8 | z8 | z8 | z8 | z8 | z8 | z8 | z8 | z8 |!mf! !^!c8 | !^!F8 | %146
 !^!f4 !^!^e4 | f>FF>AA>dd>c | c>!p!bb>aa>cc>f | f>e'e'>d'd'>^d'd'>e' | !^!e'8 | !^!a8 | f'4 z4 | %153
 z8 | !^!A8 | !^!D8 |"^sostenuto" (d4 c4) | d8 | !^!d8 | !^!=G8 | !^!A6 D>F | A8 | z8 | %163
!p! d'6 (=f>_a) | d'8 |"_cresc." d'6 (=f>_a) | d'8 | d'6 f>a | d'8 | d'6 a>d' | g'8- | %171
"^più cresc." g'8- | g'8- | g' z z2 z4 |!fff! c'8 | f8 | f'4 ^e'4 | f'8 |!fff! f'8 | b8 | c'6 f>a | %181
 c'8 |!fff! f'4 c'4 | b6 c'd' | d'6 (bg) | f'4 (f2 g2) | [Aa]6 [Bb][cc'] | [dd']4 [cc']2 [Bb]2 | %188
 [dd']4 [cc']2 [^B^b]2 | [cc']8 |!p! c6 (AG) | F6 (Ac) | f4 (f3 ^e) | f8 |"_cresc."!<(! f6 (dc) | %195
 B6 (df) | b4 (b3 a) | g8 | a7 (a | b7) (b!<)! |!ff!!>(! [A^b]8-) | [Ab]8!>)! |!pp! [Ac']8 | %203
 [Af]8 | f'4 ^e'4 | [Af']8 | [Af']8 | [db]8 | c'6 f>a | [Ac']8 | z8 | %211
!p!!>(!!<(! !fermata!f'8-!>)!!<)! ||[K:F#] f' z z2 z4 | z8 | z8 | z8 |!pp! (a2 b2 c'2 d'2) | %217
 (e'2{/g'} f'2 e'2 d'2) | (c'2 b2 a2{/c'} b2) | (a2 g2) f4 | g2 a2 b4 | a2 g2 f4 | %222
"^poco cresc." g2 a2 b4 | a2 g2 f4 |"_dim." g2 a2 f4 |"_perdendosi" g2 a2 f4 | (g2 a2 d2 e2) | f8 | %228
 z8 | z8 | z8 | z8 ||[K:A]"_molto rit." z8 | z8 |!f!"_quasi recitativo" !>!c2 !>!^d2 !>!^e2 !>!f2 | %235
 !>!g2{ab} !>!a2 !fermata!g2!p! !fermata!f2 |"^pizz.""^a tempo"!pp! F2 G2 G2 F2 | F2 A2 A2 F2 | %238
 F2 d2 d2 c2 | a2 g2 f2 c2 | f2 e2 e2 f2 | f2 d2 d2 f2 | f2 c2 c2 A2 | %243
 F2 G2 G2"^arco"!ff! [FAf]2 |] %244
V:2
 x8 | x8 | x8 | x8 | x8 | x8 | x8 | x8 | x8 | x8 | x8 | x8 | x8 | x8 | x8 | x8 | x8 | x8 | x8 | %19
 x8 | x8 | x8 | x8 | x8 | x8 | x8 | x8 | x8 | x8 | x8 | x8 | x8 | x8 | x8 | x8 | x8 | x8 | x8 | %38
 x8 | x8 | x8 | x8 | x8 | x8 | x8 | x8 | x8 | x8 | x8 | x8 | x8 | x8 | x8 | x8 | x8 | x8 | x8 | %57
 x8 | x8 | x8 | x8 | x8 | x8 | x8 | x8 | x8 | x8 | x8 | x8 | x8 | x8 | x8 | x8 | x8 | x8 | x8 | %76
 x8 | x8 | x8 | x8 | x8 | x8 ||[K:F#] x8 | x8 | x8 | x8 | x8 | x8 | x8 | x8 | x8 | x8 | x8 | x8 | %94
 x8 | x8 | x8 | x8 | x8 | x8 | x8 | x8 | x8 | x8 | x8 | x8 | x8 | x8 | x8 | x8 | x8 | x8 | x8 | %113
 x8 | x8 | x8 | x8 | x8 | x8 | x8 | x8 | x8 | x8 | x8 | x8 | x8 ||[K:A] x8 | x8 | x8 | x8 | x8 | %131
 x8 | A8 | A8 | A8 | x8 | x8 | x8 | x8 | x8 | x8 | x8 | x8 | x8 | x8 | x8 | x8 | x8 | x8 | x8 | %150
 x8 | x8 | x8 | x8 | x8 | x8 | x8 | x8 | x8 | x8 | x8 | x8 | x8 | x8 | x8 | x8 | x8 | x8 | x8 | %169
 x8 | x8 | x8 | x8 | x8 | x8 | x8 | x8 | x8 | x8 | x8 | x8 | x8 | x8 | x8 | x8 | x8 | x8 | x8 | %188
 x8 | x8 | x8 | x8 | x8 | x8 | x8 | x8 | x8 | x8 | x8 | x8 | x8 | x8 | x8 | x8 | x8 | x8 | x8 | %207
 x8 | A8 | x8 | x8 | x8 ||[K:F#] x8 | x8 | x8 | x8 | x8 | x8 | x8 | x8 | x8 | x8 | x8 | x8 | x8 | %225
 x8 | x8 | x8 | x8 | x8 | x8 | x8 ||[K:A] x8 | x8 | x8 | x8 | x8 | x8 | x8 | x8 | x8 | x8 | x8 | %243
 x8 |] %244
V:3
 z8 | z8 | z8 | z8 | z8 | z8 | z8 | z8 |!p! C,8 | F,,8 | F,4 ^E,4 | F,8 | F,8 | B,,8 | %14
 C,6 F,,>A,, | C,8 |!mf! C,8 | F,,8 |!<(! F,4 ^E,4!<)! |!>(! F,8!>)! | F,8 | B,,8 | C,6 (F,,>A,,) | %23
!p! C,8 |"_cresc."!<(! C,4 C4 | F,4 F,,4 | F,4 ^E,4!<)! |!f! F,4 F4 | F,4 F,,4 | B,,4 B,4 | %30
!>(! C2 C,4!>)! (F,,>A,,) | C,8 | z8 | z8 | z8 | z8 | z8 | z8 | z8 | z8 | z8 | z8 | z8 | z8 | z8 | %45
 z8 | z8 | z8 |!p!"^pizz." B,2 C2 C2 B,2 | z8 | ^B,2 C2 C2 B,2 | z8 | E2 F2 F2"_cresc."!<(! E2 | %53
 z8 | E2 F2 F2 E2!<)! | z8 |!f!"^arco" G8- | G8- | G8- | G8 |"_dim."!mf! G,8- | G,8- |!p! (G,8 | %63
 C,2) z2 z4 |"^pizz." C2 D2 D2 C2 | z8 | D,2 E,2 E,2 D,2 | C,2 z2 z4 |"^arco""_cresc."!<(! !^!C,8 | %69
 !^!C,8 | !^!C,8 | !^!C,8!<)! |!f! C8 | F,8 | F4 ^E4 | F8 | F8 | B,8 | C6 F,>A, |!f! C8 | %80
"_G.P." z8 |!p!!>(!!<(! !fermata!F,,8-!>)!!<)! ||[K:F#] F,, z z2 z4 | z8 | z8 | z8 | z8 | z8 | z8 | %89
 z8 | z8 | z8 | z8 | z8 | z8 | z8 | z8 | z8 | z8 | z8 | z8 | z8 | %102
!pp!"_sans aucune nuance" (A,2 B,2 C2 D2 | E2[K:tenor]{/G} F2 E2 D2 | C2 B,2 A,2{/C} B,2 | %105
 A,2 G,2 F,4) | (B,2 C2 =D4) | C2 B,2 A,4 | B,2 C2 =D4 | C2 B,2 A,4 | B,2 C2 A,4 | B,2 C2 A,4 | %112
 B,2 C2 F,2 G,2 | A,8 | z8 | z8 |[K:bass]"_dolce" (C,2!<(! D,2 E,2 F,2)!<)! | %117
 G,2!>(!{/B,} A,2 G,2!p! F,2!>)! | z8 | z8 | z8 | z8 |"_cresc." F,,8- |!<(! F,,8-!<)! | %124
!ff!"_dim." F,,8- | F,,8 ||[K:A]"^pizz."!p! F,,2 G,,2 G,,2 F,,2 | F,,2 A,,2 A,,2 F,,2 | %128
 F,,2 D,2 D,2 C,2 | A,2 G,2 F,2 C,2 | F,2 E,2 E,2 F,2 | F,2 D,2 D,2 F,2 | F,2 C,2 C,2 A,,2 | %133
 F,,2 G,,2 G,,2"_dim." F,,2 | F,,2!pp! A,,2 A,,2 F,,2 | F,,2 F,2 F,2 F,,2 | z8 | z8 | z8 | z8 | %140
!p!"^arco" !^!F,8 | !^!C,8 | !^!C4 !^!^B,4 | !^!C4- (6:4:6C.B,.A,.G,.F,.^E, | %144
 (6:4:6.F,.G,,.A,,.B,,.A,,.B,,(6:4:6.C,.B,,.C,.C,.B,,.C, | %145
 (6:4:6.D,.C,.D,.E,.D,.E,(6:4:6.F,.=G,.F,.E,.D,.E, | (6:4:6.D,.C,.D,.F,.^E,.F,(6:4:6.D.B,.C.D.C.D | %147
 .C z z2 z4 | !^!F8 | !^!B,8- | B,>A,A,>G,G,>B,B,>E | E>CC>DD>EE>A, | !^!A,8 | !^!D,8 | %154
"^sostenuto" (D4 C4) | D8 | (E2 A,4 E2) | (F2 =G2 A2 D2) | (A,2 =G,2 F,2 A,2) | %159
 (=F,2 _B,2 D2 G,2) | (A,2 D2 F2 A,2) | (A,2 D2 =F2 A,2) |!p! D6 (=F,>_A,) | D8 | D6 (=F,>_A,) | %165
"_cresc." D8 | D6 ^F,>=A, | D8 | F6 A,>D | F8 | F8- |"^più cresc." (F8 | ^E8-) | E z z2 z4 | %174
[K:tenor]!fff! F>AA>c c>FF>A | A>CC>F F>A,A,>C | C>B,B,>G G>B,B,>B | A>cc>F F>AA>C | %178
!fff! C>FF>A, A,>CC>F, | F,>B,B,>F, F,>DD>B | B>AA>G G>FF>F | A8 |[K:bass]!fff! !//![F,F]8 | %183
 !//![F,F]8 | !//![F,F]8 | !//![F,F]8 | !//![F,F]8 | !//![F,F]8 | !//![F,F]8 | z8 | z8 | %191
[K:tenor] (6:4:6z!p! !/!C!<(!!/!^B,!/!C!/!D!/!^D(6:4:6!/!E!/!^E!/!F!/!^^F!/!G!/!A!<)! |!mp! z8 | %193
 (6:4:6z!p! !/!D!<(!!/!D!/!C!/!D!/!^D(6:4:6!/!E!/!^E!/!F!/!^^F!/!G!/!A!<)! | z8 | %195
 (6:4:6z!mf! !/!D!<(!!/!C!/!D!/!E!/!^E(6:4:6!/!F!/!^^F!/!G!/!A!/!^A!/!B!<)! | z8 | %197
 (6:4:6z!f! !/!D!<(!!/!C!/!D!/!E!/!^E(6:4:6!/!F!/!^^F!/!G!/!A!/!^A!/!B!<)! | z8 |[K:bass] z8 | %200
!ff!!>(! F,,8- | F,,8!>)! |!pp!"^pizz." F,,2 G,,2 G,,2 F,,2 | F,,2 A,,2 A,,2 F,,2 | %204
 F,,2 D,2 D,2 C,2 | A,2 G,2 F,2 C,2 | F,2 E,2 E,2 F,2 | z8 | z8 | z8 | z8 | %211
!p!"^arco"!>(!!<(! !fermata!F,,8-!>)!!<)! ||[K:F#] F,, z z2 z4 | z8 | z8 | z8 | %216
[K:tenor]!pp! (A,2 B,2 C2 D2) | (E2{/G} F2 E2 D2) | (C2 B,2 A,2{/C} B,2) | (A,2 G,2) F,4 | %220
 B,2 C2 =D4 | C2 B,2 A,4 |"^poco cresc." B,2 C2 =D4 | C2 B,2 A,4 |"_dim." B,2 C2 A,4 | %225
"_perdendosi" B,2 C2 A,4 | (B,2 C2 F,2 G,2) | A,8 | z8 | z8 | %230
[K:bass]"^dolce\nespress."!<(! (C,2 D,2 E,2 F,2)!<)! |!>(! (G,2{/B,} A,2 G,2 F,2)!>)! || %232
[K:A]"_molto rit." z8 | z8 |[K:tenor]!f!"_quasi recitativo" !>!C2 !>!^D2 !>!^E2 !>!F2 | %235
 !>!G2{AB} !>!A2 !fermata!G2!p! !fermata!F2 |[K:bass]"^pizz.""^a tempo"!pp! F,,2 G,,2 G,,2 F,,2 | %237
 F,,2 A,,2 A,,2 F,,2 | F,,2 D,2 D,2 C,2 | A,2 G,2 F,2 C,2 | F,2 E,2 E,2 F,2 | F,2 D,2 D,2 F,2 | %242
 F,2 C,2 C,2 A,,2 | F,,2 G,,2 G,,2"^arco"!ff! [F,,C,A,F]2 |] %244
V:4
!pp! z8 | z8 | z8 | z8 | z8 | z8 | z8 | z8 |!pp! z8 | z8 | z8 | z8 | z8 | z8 | z8 | z8 | %16
!p! z F, z G, z G, z F, | z F, z A, z A, z F, | z F, z!<(! D z D z C!<)! | %19
 z A!>(! z G z F z C!>)! | z F z E z E z F | z F z D z D z F | z F z C z C z A, | %23
!p! z F, z G, z G, z F, |!<(! z2"_tutto staccato""_cresc." [FAcf]2 z2 [FAcf]2 | %25
 z2 [FAcf]2 z2 [FAcf]2 | z2 [FGBf]2 z2 [^EBc^e]2!<)! | z2 [FAcf]2 z2 [FAcf]2 | %28
 z2 [FAcf]2 z2 [FAcf]2 | z2 [FBdf]2 z2!>(! [FBdf]2 | z2 [FAcf]2 z2 [FAcf]2!>)! | %31
 z2 [FAcf]2 z2 [FAcf]2 | (.[CFA].[CFA].[CFA].[CFA] .[CFA].[CFA].[CFA].[CFA]) | %33
"_simile" .[DFG].[DFG].[DFG].[DFG].[DFG].[DFG] .[CFG].[CFG] | %34
 .[B,FG].[B,FG].[B,FG].[B,FG] .[B,FG].[B,FG].[B,FG].[B,FG] | %35
 .[B,DFG].[B,DFG].[B,DFG].[B,DFG] .[B,DFG].[B,DFG].[B,DFG].[B,DFG] | %36
 .[FA].[FA].[FA].[FA] .[FA].[FA].[FA].[FA] | %37
 .[B,FA].[B,FA].[B,FA].[B,FA] .[B,FA].[B,FA].[B,FA].[B,FA] | %38
 .[B,=FA].[B,FA].[B,FA].[B,FA] .[B,EG].[B,EG].[B,EG].[B,EG] | %39
 .[CEG].[CEG].[CEG].[CEG] .[CE^^F].[CEF].[CEF].[CEF] | %40
 .[B,EG].[B,EG].[B,EG].[B,EG] .[B,EG].[B,EG].[B,EG].[B,EG] | %41
 .[CEF].[CEF].[CEF].[CEF].[CEF].[CEF] .[B,EF].[B,EF] | %42
 .[A,EF].[A,EF].[A,EF].[A,EF] .[A,EF].[A,EF].[A,EF].[A,EF] | %43
 .[A,CEF].[A,CEF].[A,CEF].[A,CEF] .[A,CEF].[A,CEF].[A,CEF].[A,CEF] | %44
 .[EG].[EG].[EG].[EG] .[EG].[EG].[EG].[EG] | .[EG].[EG].[EG].[EG] .[EG].[EG].[EG].[EG] | %46
 .[EG].[EG].[EG].[EG] .[E^^F].[EF].[EF].[EF] | %47
 .[B,EG].[B,EG].[B,EG].[B,EG] .[B,EG].[B,EG].[B,EG].[B,EG] | %48
 .[EG].[EG].[EG].[EG] .[EG].[EG].[EG].[EG] | .[EG].[EG].[EG].[EG] .[EG].[EG].[EG].[EG] | %50
 .[EG].[EG].[EG].[EG] .[EG].[EG].[EG].[EG] | .[EG].[EG].[EG].[EG] .[EG].[EG].[EG].[EG] | %52
 .[CA].[CA].[CA].[CA]"_cresc."!p!!<(! .[CA].[CA].[CA].[CA] | %53
 .[CA].[CA].[CA].[CA] .[CA].[CA].[CA].[CA] | .[=CA].[CA].[CA].[CA] .[CA].[CA].[CA].[CA] | %55
 .[=CA].[CA].[CA].[CA] .[^C^A].[CA].[CA].[CA]!<)! | %56
!f! .[B,^D^GB].[B,DGB].[B,DGB].[B,DGB] .[B,DGB].[B,DGB].[B,DGB].[B,DGB] | %57
 .[EG^A].[EGA].[EGA].[EGA].[EGA].[EGA] .[^DGA].[DGA] | %58
 .[CG^A].[CGA].[CGA].[CGA] .[CGA].[CGA].[CGA].[CGA] | %59
!f! .[CEG^A].[CEGA].[CEGA].[CEGA] .[CEGA].[CEGA].[CEGA].[CEGA] | %60
"_dim."!>(! .[^DFG^B].[DFG].[DFG].[DFG] .[DFG].[DFG].[DFG].[DFG] | %61
 .[^DF=A].[DFA].[DFA].[DFA] .[DFA].[DFA].[DFA].[DFA]!>)! | %62
!p! .[^DFG].[DFG].[DFG].[DFG] .[DFG].[DFG].[DFG].[DFG] | %63
 .[^EG].[EG].[EG].[EG] .[EG].[EG].[EG].[EG] | .[FA].[FA].[FA].[FA] .[FA].[FA].[FA].[FA] | %65
 .[^EG].[EG].[EG].[EG] .[EG].[EG].[EG].[EG] | %66
 .[A,DG].[A,DG] .[A,DF].[A,DF].[A,DF].[A,DF] .[G,^B,F].[G,B,F] | %67
 .[G,C^E].[EG].[EG].[EG] .[EG].[EG].[EG].[EG] | %68
"_cresc." .[FA].[FA].[FA].[FA] .[FA].[FA].[FA].[FA] | %69
 .[^EBc].[EBc].[EBc].[EBc] .[EBc].[EBc].[EBc].[EBc] | %70
 .[FAc^d].[FAcd].[FAcd].[FAcd] .[FG^Bdf].[FGBdf].[FGBdf].[FGBdf] | %71
 .[FGBcf].[FGBcf].[FGBcf].[FGBcf] .[^EGBc^e].[EGBce].[EGBce].[EGBce] |!f! z2 [FAcf]2 z2 [FAcf]2 | %73
 z2 [FAcf]2 z2 [FAcf]2 | z2 [FGBf]2 z2 [^EGc^e]2 | z2 [FAcf]2 z2 [FAcf]2 | z2 [FAcf]2 z2 [FAcf]2 | %77
 z2 [FBdf]2 z2 [FBdf]2 | z2 [FAcf]2 z2 [FAcf]2 | z2 [FAcf]2 z2 [FAcf]2 |"_G.P." z8 | %81
!p! !fermata![F,F]8 ||[K:F#]!pp! (A2 B2 c2 d2 | e2 f2 e2 d2 | c2 B2 A2{/c} B2 | A2 G2 F4) | %86
 ([A,A]2 [B,B]2 [Cc]2 [Dd]2 | [Ee]2{/g} [Ff]2 [Ee]2 [Dd]2 | [Cc]2 [B,B]2 [A,A]2{/c} [B,B]2 | %89
 [A,A]2 [G,G]2 [F,F]4) | (G2 A2!<(! B4!<)! |!mp!!>(! A2 G2!>)!!pp! F4) | G2 A2!<(! B4!<)! | %93
!mp!!>(! A2 G2!>)!!pp! F4 | (G2 A2 F4) | (G2 A2 F4) | (G2 A2 D2 E2 | F8) | %98
!ppp!"_sans aucune nuance""^legatissimo" (3(A,FA(3B,FB(3CFc(3DFd | (3EFe(3FFf(3EFe(3DFd | %100
 (3CFc(3B,FB(3A,FA(3B,FB | (3A,FA(3G,CG(3F,CF(3F,CF) | (3(Afa(3Bfb(3cfc'(3dfd' | %103
 (3efe'(3fff'(3efe'(3dfd' | (3cfc'(3Bfb(3Afa(3Bfb | (3Afa(3Gcg(3Fcf(3Fcf) | (3Gfg(3Afa(3B=db(3dbd | %107
 (3Aca(3Gcg(3FAf(3AfA | (3Gfg(3Afa(3B=db(3dbd | (3Aca(3Gcg(3FAf(3AfA | (3Bf=d'(3fd'f(3Afc'(3fc'f | %111
 (3Gfb(3fbf(3Afc'(3fc'f | (3Bgc'(3cac'(3Fdc'(3Gec' | (3Afc'(3fc'f(3c'fc'(3fc'f |!pp! z2 [Ed]6 | %115
 z2 [Fc]6 | z2 [cbc']6 | z2 [cac']6 | z2 [E=d]6 | z2 [Fc]6 | z2"_cresc."!<(! [cbc']6 | %121
 z2 [c=ac']6!<)! |!mf! z2 [f^bf']2 z2!<(! [fbf']2 | z2 [f^bf']2 z2 [fbf']2!<)! | %124
 z2!ff!!>(! [f=af']2 [faf']2 [faf']2 | [f=af']2 [faf']2!>)! [faf']2 [faf']2 || %126
[K:A]"_tutto stacc." f' x x2 f x x2 | F x x2 f x x2 | f' x x2 ^e x x2 | F x x2 f x x2 | %130
 f' x x2 f x x2 | F x x2 f x x2 | f' x x2 f x x2 | F x x2 f x x2 |!pp! f' x x2 f x x2 | %135
 F x x2 f x x2 |!pp! C8 | F,8 | F4 ^E4 | F4- (6:4:6F.B.A.G.A.G | %140
!p! (3.F.A.d(3.c.d.c(3.B.c.B(3.A.B.A | (3.G.A.G(3.F.G.F(3.E.F.E(3.^D.E.D | %142
 (3.C.^D.C[K:bass](3.B,.C.B,(3.A,.G,.A,(3.F,.G,.A, | %143
 (3.G,.A,.G,(3.F,.G,.F,(3.E,.F,.E,(3.D,.C,.B,, |!mf! (3.A,,[K:treble].B.A(3.G.A.G(3.F.G.F(3.E.F.E | %145
 (3.D.E.D(3.C.D.C(3.B,.^A,.B,(3.C.B,.C | (3.D.E.D(3.C.D.C(3.B,.B.A(3.G.A.G | %147
 (3.F.C.E(3.D.E.D(3.C.D.C(3.B,.C.B, |!p! z8 | z8 | z8 | %151
[K:bass] (3.A,.B,.A,(3.=G,.A,.G,(3.F,.G,.F,(3.E,.F,.E, | z3/2[K:treble] .C<.C.D<.D.E<.E.F/ | %153
 .F>.=G.G>.A.A>.F.F>.e | .e>.f.f>.=g.g>.e.e>.f |"^staccato" .f>.d.d>.A.A>.F.F>.E | %156
 .E>.F.F>.=G.G>.E.E>.A | .A>.=G.G>.F.F>.d.d>.D | .D>.E.E>.F.F>.D.D>.d | .d>._B.B>.=G.G>.D.D>.d | %160
 .d>.F.F>.A.A>.D.D>.d | .d>.=f.f>.a.a>.d'.d'>.[dd'] | %162
!p! .[d=f_ad']>.[dfad'].[dfad']>.[dfad'].[dfad']>.[dfad'].[dfad']>.[dfad'] | %163
 .[d=f_ad']>.[dfad'].[dfad']>.[dfad'].[dfad']>.[dfad'].[dfad']>.[dfad'] | %164
!p! .[d=f_ad']>.[dfad'].[dfad']>.[dfad'].[dfad']>.[dfad'].[dfad']>.[dfad'] | %165
 .[d=f_ad']>.[dfad']"_cresc.".[dfad']>.[dfad'].[dfad']>.[dfad'].[dfad']>.[dfad'] | %166
 .[d^f=ad']>.[dfad'] .[dfad']>.[dfad'] .[dfad']>.[dfad'] .[dfad']>.[dfad'] | %167
 .[dfad']>.[dfad'] .[dfad']>.[dfad'] .[dfad']>.[dfad'] .[dfad']>.[dfad'] | %168
 .[dfad']>.[dfad'] .[dfad']>.[dfad'] .[dfad']>.[dfad'] .[dfad']>.[dfad'] | %169
 .[dfad']>.[dfad'] .[dfad']>.[dfad'] .[dfad']>.[dfad'] .[dfad']>.[dfad'] | %170
 .[gbf'g']>.[gbf'g'] .[gbf'g']>.[gbf'g'] .[gbf'g']>.[gbf'g'] .[gbf'g']>.[gbf'g'] | %171
 .[gbf'g']>.[gbf'g'] .[gbf'g']>.[gbf'g']"_più cresc."!<(! .[gbf'g']>.[gbf'g'] .[gbf'g']>.[gbf'g'] | %172
 (6:4:11[gb^e'g'][I:staff +1] [Dd]/[I:staff -1][d'd'']/[I:staff +1][Cc]/[I:staff -1][c'c'']/[I:staff +1][B,B]/[I:staff -1][bb']/[I:staff +1][A,A]/[I:staff -1][aa']/[I:staff +1][G,G]/[I:staff -1][gg']/[I:staff +1](6:4:12[F,F]/[I:staff -1][ff']/[I:staff +1][^E,^E]/[I:staff -1][^ee']/[I:staff +1][D,D]/[I:staff -1][dd']/[I:staff +1][C,C]/[I:staff -1][cc']/[I:staff +1][B,,B,]/[I:staff -1][Bb]/[I:staff +1][A,,A,]/[I:staff -1][Aa]/ | %173
[I:staff +1](6:4:12[G,,G,]/[I:staff -1][Gg]/[I:staff +1][F,,F,]/[I:staff -1][Ff]/[I:staff +1][^E,,^E,]/[I:staff -1][^E^e]/[I:staff +1][D,,D,]/[I:staff -1][Dd]/[I:staff +1][C,,C,]/[I:staff -1][Cc]/[I:staff +1][B,,,B,,]/[I:staff -1][B,B]/[I:staff +1](6:4:12[A,,,A,,]/[I:staff -1][A,A]/[I:staff +1][G,,,G,,]/[I:staff -1][G,G]/[I:staff +1][F,,,F,,]/[I:staff -1][F,F]/[I:staff +1][^E,,,E,,]/[I:staff -1][E,E]/[I:staff +1][D,,,D,,]/[I:staff -1][D,D]/[I:staff +1][C,,,C,,]/[I:staff -1][C,C]/!<)! | %174
!fff!!<(! [cfac']8!<)! |!<(! [FBdf]8!<)! |!<(! [fgbc'f']4!<)!!<(! [^egbc'^e']4!<)! | %177
!<(! [fac'f']8!<)! |!<(! [fac'f']8!<)!!fff! |!<(! [Bdfb]8!<)! | [cfac']6 [FAcf]>[Aa] | [cfac']8 | %182
!fff! (3!>![cfa][cfa][cfa] (3!>![cfa][cfa][cfa] (3!>![cfa][cfa][cfa] (3!>![cfa][cfa][cfa] | %183
 (3!>![dfg][dfg][dfg] (3!>![dfg][dfg][dfg] (3!>![dfg][dfg][dfg] (3!>![dfg][dfg][dfg] | %184
 (3[Bfg][Bfg][Bfg] (3[Bfg][Bfg][Bfg] (3[Bfg][Bfg][Bfg] (3[Bfg][Bfg][Bfg] | %185
 (3[Bdfg][Bdfg][Bdfg] (3[Bdfg][Bdfg][Bdfg] (3[Bdfg][Bdfg][Bdfg] (3[Bdfg][Bdfg][Bdfg] | %186
 (3[cfa][cfa][cfa] (3[cfa][cfa][cfa] (3[cfa][cfa][cfa] (3[cfa][cfa][cfa] | %187
 (3[Bfa][Bfa][Bfa] (3[Bfa][Bfa][Bfa] (3[cfa][cfa][cfa] (3[dfa][dfa][dfa] | %188
 (3[^Bfa][Bfa][Bfa] (3[Bfa][Bfa][Bfa] (3[cfa][cfa][cfa] (3[dfa][dfa][dfa] | %189
 (3[cfa][cfa][cfa] (3[cfa][cfa][cfa] (3[cfa][cfa][cfa] (3[cfa][cfa][cfa] | %190
!p! (3[Afa][Afa][Afa] (3[Afa][Afa][Afa] (3[Afa][Afa][Afa] (3[Afa][Afa][Afa] | %191
 (3[Afa][Afa][Afa] (3[Afa][Afa][Afa] (3[Afa][Afa][Afa] (3[Afa][Afa][Afa] | %192
 (3[Afa][Afa][Afa] (3[Afa][Afa][Afa] (3[Afa][Afa][Afa] (3[Afa][Afa][Afa] | %193
 (3[Afa][Afa][Afa] (3[Afa][Afa][Afa] (3[Afa][Afa][Afa] (3[Afa][Afa][Afa] | %194
 (3[Bfgb][Bfgb][Bfgb] (3[Bfgb][Bfgb][Bfgb]"_cresc."!<(! (3[Bfgb][Bfgb][Bfgb] (3[Bfgb][Bfgb][Bfgb] | %195
 (3[Bfgb][Bfgb][Bfgb] (3[Bfgb][Bfgb][Bfgb] (3[Bfgb][Bfgb][Bfgb] (3[Bfgb][Bfgb][Bfgb] | %196
 (3[Bd^egb][Bdegb][Bdegb] (3[Bdegb][Bdegb][Bdegb] (3[Bdegb][Bdegb][Bdegb] (3[Bdegb][Bdegb][Bdegb] | %197
 (3[Bd^egb][Bdegb][Bdegb] (3[Bdegb][Bdegb][Bdegb] (3[Bdegb][Bdegb][Bdegb] (3[Bdegb][Bdegb][Bdegb] | %198
 (3[^dfa^b][dfab][dfab] (3[dfab][dfab][dfab] (3[dfab][dfab][dfab] (3[dfab][dfab][dfab] | %199
 (3[^eg=b=d'][egbd'][egbd'] (3[egbd'][egbd'][egbd'] (3[egbd'][egbd'][egbd'] (3[egbd'][egbd'][egbd']!<)! | %200
!ff!!>(! (3[faf'][faf'][faf'] (3[faf'][faf'][faf'] (3[faf'][faf'][faf'] (3[faf'][faf'][faf'] | %201
 (3[faf'][faf'][faf'] (3[faf'][faf'][faf'] (3[faf'][faf'][faf'] (3[faf'][faf'][faf']!>)! | %202
!pp!"_tutto stacc." f' x x2 f x x2 | F x x2 f x x2 | f' x x2 ^e x x2 | F x x2 f x x2 | %206
 f' x x2 f x x2 | F x x2 f x x2 | f' x x2 f x x2 | F x x2 f x x2 |"_G.P." z8 | %211
!p! !fermata![F,F]8 ||[K:F#]"_dolcissimo" (A2 B2 c2 d2 | e2{/g} f2 e2 d2 | c2 B2 A2{/c} B2 | %215
 A2 G2 F4) | (3(Afa(3Bfb(3cfc'(3dfd' | (3efe'(3fff'(3efe'(3dfd' | (3cfc'(3Bfb(3Afa(3Bfb | %219
 (3Aca(3Gcg(3Fcf(3Fcf) | (3Gfg(3Afa(3B=db(3dbd | (3Aca(3Gcg(3FAf(3AfA | %222
"_poco cresc." (3Gfg(3Afa(3B=db(3dbd | (3Aca(3Gcg(3Fcf(3AfA |"_dim." (3Bf=d'(3fd'f(3Afc'(3fc'f | %225
"_perdendosi" (3Gfb(3fbf(3Afc'(3fc'f | (3Bgc'(3cac'(3Fdc'(3Gec' | (3Afc'(3fc'f(3c'fc'(3fc'f | %228
 z2 [Ed]6 | z2 [Fc]6 | z2 [Bgc']6 | z2 [Afc']6 ||[K:A]!p! z2"_molto rit." [^E=d]6 | z2 [Fc]6 | %234
!f! z2 [Bc']6 | z2 !fermata![Acf]6 | !wedge![F,F]2 !wedge![G,G]2 !wedge![G,G]2 !wedge![F,F]2 | %237
 !wedge![F,F]2 !wedge![A,A]2 !wedge![A,A]2 !wedge![F,F]2 | %238
 !wedge![F,F]2 !wedge![Dd]2 !wedge![Dd]2 !wedge![Cc]2 | %239
 !wedge![Aa]2 !wedge![Gg]2 !wedge![Ff]2 !wedge![Cc]2 | %240
 !wedge![Ff]2 !wedge![Ee]2 !wedge![Ee]2 !wedge![Ff]2 | %241
 !wedge![Ff]2 !wedge![Dd]2 !wedge![Dd]2 !wedge![Ff]2 | %242
 !wedge![Ff]2 !wedge![Cc]2 !wedge![Cc]2 !wedge![A,A]2 | %243
 !wedge![F,F]2 !wedge![G,G]2 !wedge![G,G]2!ff! !wedge![fac'f']2 |] %244
V:5
 !wedge![F,,,F,,]2 !wedge![G,,,G,,]2 !wedge![G,,,G,,]2 !wedge![F,,,F,,]2 | %1
 !wedge![F,,,F,,]2 !wedge![A,,,A,,]2 !wedge![A,,,A,,]2 !wedge![F,,,F,,]2 | %2
 !wedge![F,,,F,,]2"_simile" !wedge![D,,D,]2 !wedge![D,,D,]2 !wedge![C,,C,]2 | %3
 !wedge![A,,A,]2 !wedge![G,,G,]2 !wedge![F,,F,]2 !wedge![C,,C,]2 | %4
 !wedge![F,,F,]2 !wedge![E,,E,]2 !wedge![E,,E,]2 !wedge![F,,F,]2 | %5
 !wedge![F,,F,]2 !wedge![D,,D,]2 !wedge![D,,D,]2 !wedge![F,,F,]2 | %6
 !wedge![F,,F,]2 !wedge![C,,C,]2 !wedge![C,,C,]2 !wedge![A,,,A,,]2 | %7
 !wedge![F,,,F,,]2 !wedge![G,,,G,,]2 !wedge![G,,,G,,]2 !wedge![F,,,F,,]2 | %8
 !wedge![F,,,F,,]2 !wedge![G,,,G,,]2 !wedge![G,,,G,,]2 !wedge![F,,,F,,]2 | %9
 !wedge![F,,,F,,]2 !wedge![A,,,A,,]2 !wedge![A,,,A,,]2 !wedge![F,,,F,,]2 | %10
 !wedge![F,,,F,,]2 !wedge![D,,D,]2 !wedge![D,,D,]2 !wedge![C,,C,]2 | %11
 !wedge![A,,A,]2 !wedge![G,,G,]2 !wedge![F,,F,]2 !wedge![C,,C,]2 | %12
 !wedge![F,,F,]2 !wedge![E,,E,]2 !wedge![E,,E,]2 !wedge![F,,F,]2 | %13
 !wedge![F,,F,]2 !wedge![D,,D,]2 !wedge![D,,D,]2 !wedge![F,,F,]2 | %14
 !wedge![F,,F,]2 !wedge![C,,C,]2 !wedge![C,,C,]2 !wedge![A,,,A,,]2 | %15
 !wedge![F,,,F,,]2 !wedge![G,,,G,,]2 !wedge![G,,,G,,]2 !wedge![F,,,F,,]2 | %16
 !wedge![F,,,F,,]2 !wedge![G,,,G,,]2 !wedge![G,,,G,,]2 !wedge![F,,,F,,]2 | %17
 !wedge![F,,,F,,]2 !wedge![A,,,A,,]2 !wedge![A,,,A,,]2 !wedge![F,,,F,,]2 | %18
 !wedge![F,,,F,,]2 !wedge![D,,D,]2 !wedge![D,,D,]2 !wedge![C,,C,]2 | %19
 !wedge![A,,A,]2 !wedge![G,,G,]2 !wedge![F,,F,]2 !wedge![C,,C,]2 | %20
 !wedge![F,,F,]2 !wedge![E,,E,]2 !wedge![E,,E,]2 !wedge![F,,F,]2 | %21
 !wedge![F,,F,]2 !wedge![D,,D,]2 !wedge![D,,D,]2 !wedge![F,,F,]2 | %22
 !wedge![F,,F,]2 !wedge![C,,C,]2 !wedge![C,,C,]2 !wedge![A,,,A,,]2 | %23
 !wedge![F,,,F,,]2 !wedge![G,,,G,,]2 !wedge![G,,,G,,]2 !wedge![F,,,F,,]2 | %24
 [F,,,F,,]C,,[G,,,G,,]C,,[G,,,G,,]C,,[F,,,F,,]C,, | %25
 [F,,,F,,]C,,[A,,,A,,]C,,[A,,,A,,]C,,[F,,,F,,]C,, | [F,,,F,,]D,,[D,,D,]G,,[D,,D,]G,,[C,,C,]G,, | %27
!f! [A,,A,]C,[G,,G,]C,[F,,F,]C,[C,,C,]F,, | %28
 [F,,F,][A,,C,][E,,E,][A,,C,][E,,E,][A,,C,][F,,F,][A,,C,] | %29
 [F,,F,][B,,D,][D,,D,][F,,B,,][D,,D,][F,,B,,][F,,F,][B,,D,] | %30
 [F,,F,][A,,C,][C,,C,][F,,A,,][C,,C,][F,,A,,][A,,,A,,][C,,F,,] | %31
 [F,,,F,,]C,,[G,,,G,,]C,,[G,,,G,,]C,,[F,,,F,,]C,, |!pp! z8 | z8 | z8 | z8 | %36
 .[F,C].[F,C].[F,C].[F,C].[F,C].[F,C] .[G,C].[A,C] | z8 | z8 | %39
 !wedge![A,,,A,,]2 !wedge![B,,,B,,]2 !wedge![B,,,B,,]2 !wedge![A,,,A,,]2 | z8 | z8 | z8 | z8 | %44
 .[E,B,].[E,B,].[E,B,].[E,B,].[E,B,].[E,B,] .[F,B,].[G,B,] | z8 | z8 | %47
 !wedge!E,,2 !wedge!F,,2 !wedge!F,,2 !wedge!E,,2 | z8 | %49
 !wedge!E,,2 !wedge!F,,2 !wedge!F,,2 !wedge!E,,2 | z8 | %51
 !wedge!E,,2 !wedge!F,,2 !wedge!F,,2 !wedge!E,,2 | z8 | %53
 !wedge!F,,2 !wedge!G,,2 !wedge!G,,2 !wedge!F,,2 | z8 | %55
 !wedge!^D,,2 !wedge!E,,2 !wedge!E,,2 !wedge!D,,2 | z8 | z8 | z8 | %59
 !wedge![C,,C,]2 !wedge![^D,,^D,]2 !wedge![D,,D,]2 !wedge![C,,C,]2 | z8 | %61
 !wedge![G,,,G,,]2 !wedge![^D,,^D,]2 !wedge![D,,D,]2 !wedge![G,,,G,,]2 | z8 | %63
 !wedge![C,,C,]2 !wedge![=D,,=D,]2 !wedge![D,,D,]2 !wedge![C,,C,]2 | z8 | %65
 !wedge![C,,C,]2 !wedge![D,,D,]2 !wedge![D,,D,]2 !wedge![C,,C,]2 | z8 | %67
 !wedge!=B,2 !wedge!C2 !wedge!C2 !wedge!B,2 |"_simile" !wedge!A,2 !wedge!C2 !wedge!C2 !wedge!A,2 | %69
 !wedge!G,2 !wedge!C2 !wedge!C2 !wedge!G,2 | z8 | z8 | z F, z G, z G, z F, | z F, z A, z A, z F, | %74
 z F, z D z D z C | z A z G z F z C | z F z E z E z F | z F z D z D z F | z F z C z C z A, | %79
 z F, z G, z G, z F, | z8 | !fermata![F,,,F,,]8 ||[K:F#] (3(F,C,F,,(3G,C,F,,(3A,C,F,,(3B,C,F,, | %83
 (3CC,F,,(3DC,F,,(3CC,F,,(3B,C,F,, | (3A,C,F,,(3G,C,F,,(3F,C,F,,(3G,D,B,,, | %85
 (3F,C,C,,(3E,B,,C,,(3F,A,,F,,(3F,A,,F,,) | (3(F,C,F,,(3G,C,F,,(3A,C,F,,(3B,C,F,, | %87
 (3CC,F,,(3DC,F,,(3CC,F,,(3B,C,F,, | (3A,C,F,,(3G,C,F,,(3F,C,F,,(3G,D,B,,, | %89
 (3F,C,C,,(3E,B,,C,,(3F,A,,F,,(3F,A,,F,,) | (B,2 C2 =D4 | C2 B,2 A,4) | (B,2 C2 =D4 | C2 B,2 A,4) | %94
 (B,2 C2 A,4) | (B,2 C2 A,4) | (B,2 C2 F,2 G,2 | A,8) | (3(F,C,F,,(3G,C,F,,(3A,C,F,,(3B,C,F,, | %99
 (3CC,F,,(3DC,F,,(3CC,F,,(3B,C,F,, | (3A,C,F,,(3G,C,F,,(3F,C,F,,(3G,D,B,,, | %101
 (3F,C,C,,(3E,B,,C,,(3F,A,,F,,(3F,A,,F,,) | (3(F,C,F,,(3G,C,F,,(3A,C,F,,(3B,C,F,, | %103
 (3CC,F,,(3DC,F,,(3CC,F,,(3B,C,F,, | (3A,C,F,,(3G,C,F,,(3F,C,F,,(3G,D,B,,, | %105
 (3F,C,C,,(3E,B,,C,,(3F,A,,F,,(3F,A,,F,,) | (3B,F,B,,(3CF,B,,(3=DF,B,,(3F,B,,F, | %107
 (3CF,F,,(3B,F,F,,(3A,C,F,,(3C,F,,C, | (3B,F,B,,(3CF,B,,(3=DF,B,,(3F,B,,F, | %109
 (3CF,F,,(3B,F,F,,(3A,C,F,,(3C,F,,C, | (3F,F,,B,,,(3F,,B,,,F,,(3F,F,,C,,(3F,,C,,F,, | %111
 (3F,F,,=D,,(3F,,D,,F,,(3F,F,,C,,(3F,,C,,F,, | (3G,B,,C,,(3A,C,C,,(3D,F,,C,,(3C,G,,C,, | %113
 (3F,A,,F,,(3A,,F,,A,,(3F,,A,,F,,(3A,,F,,A,, | (3.[E,,E,].[D,,D,].[C,,C,] [G,B,]6 | %115
 (3.[E,,E,].[D,,D,].[C,,C,] [A,C]6 | (3.[E,,E,].[D,,D,].[C,,C,] [G,CE]6 | %117
 (3.[E,,E,].[D,,D,].[C,,C,] [A,CF]6 | (3.[^E,,^E,].[=D,,=D,].[C,,C,] [G,B,]6 | %119
 (3[^E,,^E,][=D,,=D,][C,,C,] [=A,C]6 | (3[^E,,^E,][=D,,=D,][C,,C,] [G,CE]6 | %121
 (3[^E,,^E,][=D,,=D,][C,,C,] [=A,CF]6 | x2 [F=A]2 x2 [FA]2 | x2 [F=A]2 x2 [FA]2 | %124
 (3[D,D][C,C][^B,,^B,] (3[F,F][E,E][D,D] (3[=A,=A][G,G][F,F][K:treble] (3[^B,^B][=B,=B][A,A] | %125
 (3[Dd][Cc][^B,^B] (3dcB (3dcB (3dcB ||[K:A]!p! [Fc]2 x2 x2[K:bass] x2 | x8 | %128
 x2[K:treble] x2 x2[K:bass] x2 | x8 | x2[K:treble] x2 x2[K:bass] x2 | x2 x2 x2 x2 | %132
 x2[K:treble] x2 x2[K:bass] x2 | x8 | x2[K:treble] x2 x2[K:bass] x2 | x8 | %136
 (3.A,.B,.A,(3.G,.A,.G,(3.F,.G,.F,(3.E,.F,.E, | %137
"_sempre stacc." (3.D,.E,.D,(3.C,.D,.C,(3.B,,.C,.B,,(3.A,,.B,,.A,, | %138
 (3.G,,.C,.B,,(3.A,,.B,,.A,,(3.G,,.D,.C,(3.B,,.C,.B,, | %139
 (3.A,,.B,.A,(3.G,.A,.G,(3.F,.D.C(3.B,.C.B, | (3.A,.C.B,(3.A,.B,.A,(3.G,.A,.G,(3.F,.C.F | %141
 (3.E.F.E(3.^D.E.D(3.C.D.C(3.B,.C.B, | (3.A,.B,.A,(3.G,.A,.G,(3.F,.E,.F,(3.^D,.E,.F, | %143
 (3.E,.F,.E,(3.^D,.E,.D,(3.C,.=D,.C,(3.B,,.A,,.G,, | %144
 (3.F,,.^E,,.F,,(3.G,,.F,,.G,,(3.A,,.G,,.A,,(3.^A,,.G,,.A,, | %145
 (3.B,,.^A,,.B,,(3.C,.B,,.C,(3.D,.E,.D,(3.C,.D,.C, | %146
 (3.B,,.C,.B,,(3.A,,.B,,.A,,(3.G,,.D,.C,(3.B,,.C,.B,, | .A,, z z2 z4 | %148
 (3.A,.B,.A,(3.G,.A,.G,(3.F,.G,.F,(3.E,.F,.E, | (3.D,.E,.D,(3.C,.D,.C,(3.B,,.C,.B,,(3.A,,.B,,.A,, | %150
 (3.G,,.A,,.G,,(3.F,,.G,,.F,,(3.E,,.F,,.E,,(3.D,,.E,,.D,, | C,,>A,,A,,>B,,B,,>C,C,>D, | %152
 (6:4:6(D,C,D,E,D,E,(6:4:6F,E,F,=G,F,G, | (6:4:6A,=G,A,B,A,B,(6:4:6CB,CDCD) | %154
"^legato" (6:4:6(=G,A,G,F,G,F,(6:4:6E,F,E,G,A,G,) | (6:4:6(F,=G,F,E,F,E,(6:4:6D,E,D,F,G,F,) | %156
 (6:4:6(=G,A,G,F,G,F,(6:4:6E,F,E,G,A,G,) | (6:4:6(F,=G,F,E,F,E,(6:4:6D,E,D,E,F,E,) | %158
 (6:4:6(F,=G,F,E,F,E,(6:4:6D,E,D,F,G,F,) | (6:4:6(E,^D,E,=G,F,G,(6:4:6_B,A,B,E,D,E,) | %160
 (6:4:6F,E,F,A,^G,A,(6:4:6F,E,F,D,C,D, | (6:4:6=F,E,F,A,G,A,(6:4:6F,E,F,D,C,D, | %162
 (6:4:6([_B,,,_B,,][A,,,A,,][B,,,B,,][=F,,=F,][E,,E,][F,,F,](6:4:6[B,,_B,][A,,A,][B,,B,][F,=F][E,E][F,F]) | %163
 (6:4:6([_B,_B][A,A][B,B][=F,=F][E,E][F,F](6:4:6[_B,,B,][A,,A,][B,,B,][=F,,F,][E,,E,][F,,F,]) | %164
 (6:4:6[=B,,,=B,,][^A,,,^A,,][B,,,B,,][=F,,=F,][E,,E,][F,,F,](6:4:6[B,,=B,][A,,^A,][B,,B,][F,=F][E,E][F,F] | %165
 (6:4:6[B,B][^A,^A][B,B][=F,=F][E,E][F,F](6:4:6[B,,B,][^A,,A,][B,,B,][=F,,F,][E,,E,][F,,F,] | %166
 (6:4:6[^B,,,^B,,][^^A,,,^^A,,][B,,,B,,][^F,,^F,][^E,,^E,][F,,F,](6:4:6[B,,^B,][A,,^^A,][B,,B,][F,^F][E,^E][F,F] | %167
 (6:4:6[^B,^B][^^A,^^A][B,B][F,F][^E,^E][F,F](6:4:6[^B,,B,][^^A,,A,][B,,B,][F,,F,][^E,,E,][F,,F,] | %168
 (6:4:6[C,,C,][^B,,,^B,,][C,,C,][F,,F,][^E,,^E,][F,,F,](6:4:6[C,C][B,,^B,][C,C][F,F][E,^E][F,F] | %169
 (6:4:6[Cc][^B,^B][Cc][F,F][^E,^E][F,F](6:4:6[C,C][^B,,B,][C,C][F,,F,][^E,,E,][F,,F,] | %170
 (6:4:6[C,,C,][^B,,,^B,,][C,,C,][G,,G,][^^F,,^^F,][G,,G,](6:4:6[C,C][B,,^B,][C,C][G,G][F,^^F][G,G] | %171
 (6:4:6[Cc][^B,^B][Cc][G,G][^^F,^^F][G,G](6:4:6[C,C][^B,,B,][C,C][G,,G,][F,,^F,][G,,G,] | %172
 [C,,C,] x x2 x4 | x8 | %174
 (6:4:11z [C,,C,]/[I:staff -1][Cc]/[I:staff +1][^B,,,^B,,]/[I:staff -1][^B,^B]/[I:staff +1][C,,C,]/[I:staff -1][Cc]/[I:staff +1][D,,D,]/[I:staff -1][Dd]/[I:staff +1][^D,,^D,]/[I:staff -1][^D^d]/[I:staff +1](6:4:12[E,,E,]/[I:staff -1][Ee]/[I:staff +1][^E,,^E,]/[I:staff -1][^E^e]/[I:staff +1][F,,F,]/[I:staff -1][Ff]/[I:staff +1][^^F,,^^F,]/[I:staff -1][^^F^^f]/[I:staff +1][G,,G,]/[I:staff -1][Gg]/[I:staff +1][A,,A,]/[I:staff -1][Aa]/ | %175
[I:staff +1] (6:4:11z [C,,C,]/[I:staff -1][Cc]/[I:staff +1][^B,,,^B,,]/[I:staff -1][^B,^B]/[I:staff +1][C,,C,]/[I:staff -1][Cc]/[I:staff +1][D,,D,]/[I:staff -1][Dd]/[I:staff +1][^D,,^D,]/[I:staff -1][^D^d]/[I:staff +1](6:4:12[E,,E,]/[I:staff -1][Ee]/[I:staff +1][^E,,^E,]/[I:staff -1][^E^e]/[I:staff +1][F,,F,]/[I:staff -1][Ff]/[I:staff +1][^^F,,^^F,]/[I:staff -1][^^F^^f]/[I:staff +1][G,,G,]/[I:staff -1][Gg]/[I:staff +1][A,,A,]/[I:staff -1][Aa]/ | %176
[I:staff +1] (6:4:11z [G,,G,]/[I:staff -1][Gg]/[I:staff +1][^^F,,^^F,]/[I:staff -1][^^F^^f]/[I:staff +1][G,,G,]/[I:staff -1][Gg]/[I:staff +1][A,,A,]/[I:staff -1][Aa]/[I:staff +1][^A,,^A,]/[I:staff -1][^A^a]/[I:staff +1] (6:4:11z [B,,B,]/[I:staff -1][Bb]/[I:staff +1][A,,A,]/[I:staff -1][Aa]/[I:staff +1][B,,B,]/[I:staff -1][Bb]/[I:staff +1][^B,,^B,]/[I:staff -1][^B^b]/[I:staff +1][C,C]/[I:staff -1][cc']/ | %177
[I:staff +1] (6:4:11z [C,,C,]/[I:staff -1][Cc]/[I:staff +1][^B,,,^B,,]/[I:staff -1][^B,^B]/[I:staff +1][C,,C,]/[I:staff -1][Cc]/[I:staff +1][D,,D,]/[I:staff -1][Dd]/[I:staff +1][^D,,^D,]/[I:staff -1][^D^d]/[I:staff +1](6:4:12[E,,E,]/[I:staff -1][Ee]/[I:staff +1][^E,,^E,]/[I:staff -1][^E^e]/[I:staff +1][F,,F,]/[I:staff -1][Ff]/[I:staff +1][^^F,,^^F,]/[I:staff -1][^^F^^f]/[I:staff +1][G,,G,]/[I:staff -1][Gg]/[I:staff +1][A,,A,]/[I:staff -1][Aa]/ | %178
[I:staff +1] (6:4:11z C,/[I:staff -1][Cc]/[I:staff +1]^B,,/[I:staff -1][^B,^B]/[I:staff +1]C,/[I:staff -1][Cc]/[I:staff +1]D,/[I:staff -1][Dd]/[I:staff +1]^D,/[I:staff -1][^D^d]/[I:staff +1](6:4:12E,/[I:staff -1][Ee]/[I:staff +1]^E,/[I:staff -1][^E^e]/[I:staff +1]F,/[I:staff -1][Ff]/[I:staff +1]^^F,/[I:staff -1][^^F^^f]/[I:staff +1]G,/[I:staff -1][Gg]/[I:staff +1]A,/[I:staff -1][Aa]/ | %179
[I:staff +1] (6:4:11z [C,,C,]/[I:staff -1][Cc]/[I:staff +1][^B,,,^B,,]/[I:staff -1][^B,^B]/[I:staff +1][C,,C,]/[I:staff -1][Cc]/[I:staff +1][D,,D,]/[I:staff -1][Dd]/[I:staff +1][^D,,^D,]/[I:staff -1][^D^d]/[I:staff +1](6:4:12[E,,E,]/[I:staff -1][Ee]/[I:staff +1][^E,,^E,]/[I:staff -1][^E^e]/[I:staff +1][F,,F,]/[I:staff -1][Ff]/[I:staff +1][^^F,,^^F,]/[I:staff -1][^^F^^f]/[I:staff +1][G,,G,]/[I:staff -1][Gg]/[I:staff +1][A,,A,]/[I:staff -1][Aa]/ | %180
[I:staff +1] (6:4:11z D,/[I:staff -1][Dd]/[I:staff +1]C,/[I:staff -1][Cc]/[I:staff +1]^B,,/[I:staff -1][^B,^B]/[I:staff +1]C,/[I:staff -1][Cc]/[I:staff +1]D,/[I:staff -1][Dd]/[I:staff +1](3:2:6^D,/[I:staff -1][^D^d]/[I:staff +1]E,/[I:staff -1][Ee]/[I:staff +1]^E,/[I:staff -1][^E^e]/[I:staff +1] x2 | %181
 (6:4:11z [C,C]/[I:staff -1][cc']/[I:staff +1][^B,,^B,]/[I:staff -1][^B^b]/[I:staff +1][C,C]/[I:staff -1][cc']/[I:staff +1][D,D]/[I:staff -1][dd']/[I:staff +1][^D,^D]/[I:staff -1][^d^d']/[I:staff +1](6:4:12[E,E]/[I:staff -1][ee']/[I:staff +1][^E,^E]/[I:staff -1][^e^e']/[I:staff +1][F,F]/[I:staff -1][ff']/[I:staff +1][^^F,^^F]/[I:staff -1][^^f^^f']/[I:staff +1][G,G]/[I:staff -1][gg']/[I:staff +1][A,A]/[I:staff -1][aa']/ | %182
[I:staff +1][K:treble] (3!>![CFA][CFA][CFA] (3!>![CFA][CFA][CFA] (3!>![CFA][CFA][CFA] (3!>![CFA][CFA][CFA] | %183
 (3!>![DFG][DFG][DFG] (3!>![DFG][DFG][DFG] (3!>![DFG][DFG][DFG] (3!>![DFG][DFG][DFG] | %184
 (3[B,FG][B,FG][B,FG] (3[B,FG][B,FG][B,FG] (3[B,FG][B,FG][B,FG] (3[B,FG][B,FG][B,FG] | %185
[K:bass]"^marcatissimo" !^![B,,,B,,]2 !^![C,,C,]2 !^![C,,C,]2 !^![B,,,B,,]2 | %186
[K:treble] (3[CFA][CFA][CFA] (3[CFA][CFA][CFA] (3[CFA][CFA][CFA] (3[CFA][CFA][CFA] | %187
 (3[B,FA][B,FA][B,FA] (3[B,FA][B,FA][B,FA] (3[CFA][CFA][CFA] (3[DFA][DFA][DFA] | %188
 (3[^B,FA][B,FA][B,FA] (3[B,FA][B,FA][B,FA] (3[CFA][CFA][CFA] (3[DFA][DFA][DFA] | %189
[K:bass] !^![F,,,F,,]2 !^![G,,,G,,]2 !^![G,,,G,,]2 !^![F,,,F,,]2 | .C2 .D2 .D2 .C2 | %191
 !wedge![F,,,F,,]2 !wedge![G,,,G,,]2 !wedge![G,,,G,,]2 !wedge![F,,,F,,]2 | %192
 !wedge!C2 !wedge!D2 !wedge!D2 !wedge!C2 | %193
 !wedge![F,,,F,,]2 !wedge![G,,,G,,]2 !wedge![G,,,G,,]2 !wedge![F,,,F,,]2 | %194
"_simile" !wedge!D2 !wedge!E2 !wedge!E2 !wedge!D2 | %195
 !wedge![F,,,F,,]2 !wedge![G,,,G,,]2 !wedge![G,,,G,,]2 !wedge![F,,,F,,]2 | %196
 !wedge!D2 !wedge!E2 !wedge!E2 !wedge!D2 | %197
 !wedge![F,,,F,,]2 !wedge![G,,,G,,]2 !wedge![G,,,G,,]2 !wedge![F,,,F,,]2 | %198
[K:treble] (3[FA^B][FAB][FAB] (3[FAB][FAB][FAB] (3[FAB][FAB][FAB] (3[FAB][FAB][FAB] | %199
 (3[FG=Bd][FGBd][FGBd] (3[FGBd][FGBd][FGBd] (3[FGBd][FGBd][FGBd] (3[FGBd][FGBd][FGBd] | %200
 (3^dc^B z2 (3dcB z2 | (3^dc^B (3dcB (3dcB (3dcB | [Fc]2[K:bass] x2 x2 x2 | x8 | x8 | x8 | x8 | %207
 x8 | x8 | x8 | z8 | !fermata![F,,,F,,]8 ||[K:F#] (3(F,C,F,,(3G,C,F,,(3A,C,F,,(3B,C,F,, | %213
 (3CC,F,,(3DC,F,,(3CC,F,,(3B,C,F,, | (3A,C,F,,(3G,C,F,,(3F,C,F,,(3G,D,B,,, | %215
 (3F,C,C,,(3E,B,,C,,(3F,A,,F,,(3F,A,,F,,) | (3(F,C,F,,(3G,C,F,,(3A,C,F,,(3B,C,F,, | %217
 (3CC,F,,(3DC,F,,(3CC,F,,(3B,C,F,, | (3A,C,F,,(3G,C,F,,(3F,C,F,,(3G,D,B,,, | %219
 (3F,C,C,,(3E,B,,C,,(3F,A,,F,,(3F,A,,F,,) | (3B,F,B,,(3CF,B,,(3=DF,B,,(3F,B,,F, | %221
 (3CF,F,,(3B,F,F,,(3A,C,F,,(3C,F,,C, | (3B,F,B,,(3CF,B,,(3=DF,B,,(3F,B,,F, | %223
 (3CF,F,,(3B,F,F,,(3A,C,F,,(3C,F,,C, | (3F,F,,B,,,(3F,,B,,,F,,(3F,F,,C,,(3F,,C,,F,, | %225
 (3F,F,,=D,,(3F,,D,,F,,(3F,F,,C,,(3F,,C,,F,, | (3G,B,,C,,(3A,C,C,,(3D,F,,C,,(3E,G,,C,, | %227
 (3F,A,,F,,(3A,,F,,A,,(3F,,A,,F,,(3A,,F,,A,, | (3.[E,,E,].[D,,D,].[C,,C,] [G,B,]6 | %229
 (3.[E,,E,].[D,,D,].[C,,C,] [A,C]6 | (3.[E,,E,].[D,,D,].[C,,C,] [G,CE]6 | %231
 (3.[E,,E,].[D,,D,].[C,,C,] [A,CF]6 ||[K:A] (3.[^E,,^E,].[=D,,=D,].[C,,C,] [G,B,]6 | %233
 (3.[^E,,^E,].[D,,D,].[C,,C,] [A,C]6 | (3.[^E,,^E,].[D,,D,].[C,,C,] [G,C^E]6 | %235
 (3.[A,,,A,,].[F,,,F,,].[E,,,E,,] !fermata![F,CF]6 | %236
!pp! !wedge![F,,,F,,]2 !wedge![G,,,G,,]2 !wedge![G,,,G,,]2 !wedge![F,,,F,,]2 | %237
 !wedge![F,,,F,,]2 !wedge![A,,,A,,]2 !wedge![A,,,A,,]2 !wedge![F,,,F,,]2 | %238
 !wedge![F,,,F,,]2"^sempre stacc." !wedge![D,,D,]2 !wedge![D,,D,]2 !wedge![C,,C,]2 | %239
 !wedge![A,,A,]2 !wedge![G,,G,]2 !wedge![F,,F,]2 !wedge![C,,C,]2 | %240
 !wedge![F,,F,]2 !wedge![E,,E,]2 !wedge![E,,E,]2 !wedge![F,,F,]2 | %241
 !wedge![F,,F,]2 !wedge![D,,D,]2 !wedge![D,,D,]2 !wedge![F,,F,]2 | %242
 !wedge![F,,F,]2 !wedge![C,,C,]2 !wedge![C,,C,]2 !wedge![A,,,A,,]2 | %243
 !wedge![F,,,F,,]2 !wedge![G,,,G,,]2 !wedge![G,,,G,,]2 !wedge![F,,,A,,,C,,F,,]2 |] %244
V:6
 x8 | x8 | x8 | x8 | x8 | x8 | x8 | x8 | x8 | x8 | x8 | x8 | x8 | x8 | x8 | x8 | x8 | x8 | x8 | %19
 x8 | x8 | x8 | x8 | x8 | x8 | x8 | x8 | x8 | x8 | x8 | x8 | x8 | x8 | x8 | x8 | x8 | x8 | x8 | %38
 x8 | x8 | x8 | x8 | x8 | x8 | x8 | A,A,A,A, B,B, CC | ^A,A,A,A, B,B, CC | x8 | x8 | x8 | x8 | x8 | %52
 x8 | x8 | x8 | x8 | x8 | x8 | x8 | x8 | x8 | x8 | x8 | x8 | x8 | x8 | x8 | x8 | x8 | x8 | x8 | %71
 x8 | x8 | x8 | x8 | x8 | x8 | x8 | x8 | x8 | x8 | x8 ||[K:F#] x8 | x8 | x8 | x8 | x8 | x8 | x8 | %89
 x8 | x8 | x8 | x8 | x8 | x8 | x8 | x8 | x8 | x8 | x8 | x8 | x8 | x8 | x8 | x8 | x8 | x8 | x8 | %108
 x8 | x8 | x8 | x8 | x8 | x8 | x8 | x8 | x8 | x8 | x8 | x8 | x8 | x8 | x8 | x8 | x8 | x8 || %126
[K:A] (6:4:6[ac'][gb][fa][I:staff +1]cFC[I:staff -1] (6:4:6[Ac][GB][FA][I:staff +1]CF,C, | %127
[I:staff -1] (6:4:6[A,C][G,B,][F,A,][I:staff +1]C,F,,C,,[I:staff -1] (6:4:6[Ac][GB][FA][I:staff +1]CF,C, | %128
[I:staff -1] (6:4:6[ac'][gb][fa][I:staff +1]cFC[I:staff -1] (6:4:6[Bd][Ac][GB][I:staff +1]CG,C, | %129
[I:staff -1] (6:4:6[A,C][G,B,][F,A,][I:staff +1]C,F,,C,,[I:staff -1] (6:4:6[Ac][GB][FA][I:staff +1]CF,C, | %130
[I:staff -1] (6:4:6[ac'][gb][fa][I:staff +1]cFC[I:staff -1] (6:4:6[Ac][GB][FA][I:staff +1]CF,C, | %131
[I:staff -1] (6:4:6[B,D][A,C][G,B,][I:staff +1]F,D,F,,[I:staff -1] (6:4:6[Bd][Ac][GB][I:staff +1]FDF, | %132
[I:staff -1] (6:4:6[ac'][gb][fa][I:staff +1]cFC[I:staff -1] (6:4:6[Ac][GB][FA][I:staff +1]CF,C, | %133
[I:staff -1] (6:4:6[A,C][G,B,][F,A,][I:staff +1]C,F,,C,,[I:staff -1] (6:4:6[Ac][GB][FA][I:staff +1]CF,C, | %134
[I:staff -1] (6:4:6[ac'][gb][fa][I:staff +1]cFC[I:staff -1] (6:4:6[Ac][GB][FA][I:staff +1]CF,C, | %135
[I:staff -1] (6:4:6[A,C][G,B,][F,A,][I:staff +1]C,F,,C,,[I:staff -1] (6:4:6[Ac][GB][FA][I:staff +1]CF,C, | %136
 x8 | x8 | x8 | x8 | x8 | x8 | x2[I:staff -1][K:bass] x6 | x8 | x2/3[K:treble] x22/3 | x8 | x8 | %147
 x8 | x8 | x8 | x8 |[K:bass] x8 | x3/2[K:treble] x13/2 | x8 | x8 | x8 | x8 | x8 | x8 | x8 | x8 | %161
 x8 | x8 | x8 | x8 | x8 | x8 | x8 | x8 | x8 | x8 | x8 | x8 | x8 | z x x2 x4 | z x x2 x4 | %176
 z x x2 z x x2 | z x x2 x4 | z x x2 x4 | z x x2 x4 | z x x2 x4 | z x x2 x4 | x8 | x8 | x8 | x8 | %186
 x8 | x8 | x8 | x8 | x8 | x8 | x8 | x8 | x8 | x8 | x8 | x8 | x8 | x8 | x8 | x8 | %202
 (6:4:6[ac'][gb][fa][I:staff +1]FCF,[I:staff -1] (6:4:6[Ac][GB][FA][I:staff +1]F,C,F,, | %203
[I:staff -1] (6:4:6[A,C][G,B,][F,A,][I:staff +1]F,,C,,F,,,[I:staff -1] (6:4:6[Ac][GB][FA][I:staff +1]F,C,F,, | %204
[I:staff -1] (6:4:6[bd'][ac'][gb][I:staff +1]FDF,[I:staff -1] (6:4:6[Bd][Ac][GB][I:staff +1]F,C,F,, | %205
[I:staff -1] (6:4:6[A,C][G,B,][F,A,][I:staff +1]F,,C,,F,,,[I:staff -1] (6:4:6[Ac][GB][FA][I:staff +1]F,C,F,, | %206
[I:staff -1] (6:4:6[ac'][gb][fa][I:staff +1]FCF,[I:staff -1] (6:4:6[Ac][GB][FA][I:staff +1]F,C,F,, | %207
[I:staff -1] (6:4:6[B,D][A,C][G,B,][I:staff +1]F,,D,,F,,,[I:staff -1] (6:4:6[Bd][Ac][GB][I:staff +1]F,D,F,, | %208
[I:staff -1] (6:4:6[ac'][gb][fa][I:staff +1]FCF,[I:staff -1] (6:4:6[Ac][GB][FA][I:staff +1]F,C,F,, | %209
[I:staff -1] (6:4:6[A,C][G,B,][F,A,][I:staff +1]F,,C,,F,,,[I:staff -1] (6:4:6[Ac][GB][FA][I:staff +1]F,C,F,, | %210
 x8 | x8 ||[K:F#] x8 | x8 | x8 | x8 | x8 | x8 | x8 | x8 | x8 | x8 | x8 | x8 | x8 | x8 | x8 | x8 | %228
 x8 | x8 | x8 | x8 ||[K:A] x8 | x8 | x8 | x8 | x8 | x8 | x8 | x8 | x8 | x8 | x8 | x8 |] %244
V:7
 x8 | x8 | x8 | x8 | x8 | x8 | x8 | x8 | x8 | x8 | x8 | x8 | x8 | x8 | x8 | x8 | x8 | x8 | x8 | %19
 x8 | x8 | x8 | x8 | x8 | x8 | x8 | x8 | x8 | x8 | x8 | x8 | x8 | x8 | x8 | x8 | x8 | x8 | x8 | %38
 x8 | x8 | x8 | x8 | x8 | x8 | x8 | x8 | x8 | x8 | x8 | x8 | x8 | x8 | x8 | x8 | x8 | x8 | x8 | %57
 x8 | x8 | x8 | x8 | x8 | x8 | x8 | x8 | x8 | x8 | x8 | x8 | x8 | x8 | x8 | %72
 [F,,,F,,]2 [G,,,G,,]2 [G,,,G,,]2 [F,,,F,,]2 | [F,,,F,,]2 [A,,,A,,]2 [A,,,A,,]2 [F,,,F,,]2 | %74
 [F,,,F,,]2 [D,,D,]2 [D,,D,]2 [C,,C,]2 | [A,,A,]2 [G,,G,]2 [F,,F,]2 [C,,C,]2 | %76
 [F,,F,]2 [E,,E,]2 [E,,E,]2 [F,,F,]2 | [F,,F,]2 [D,,D,]2 [D,,D,]2 [F,,F,]2 | %78
 [F,,F,]2 [C,,C,]2 [C,,C,]2 [A,,,A,,]2 | [F,,,F,,]2 [G,,,G,,]2 [G,,,G,,]2 [F,,,F,,]2 | x8 | x8 || %82
[K:F#] x8 | x8 | x8 | x8 | x8 | x8 | x8 | x8 | (3B,F,B,,(3CF,B,,(3=DF,B,,(3F,B,,F, | %91
 (3CF,F,,(3B,F,F,,(3A,C,F,,(3C,F,,C, | (3B,F,B,,(3CF,B,,(3=DF,B,,(3F,B,,F, | %93
 (3CF,F,,(3B,F,F,,(3A,C,F,,(3C,F,,C, | (3B,F,B,,(3CF,B,,(3A,F,C,(3F,C,F, | %95
 (3B,F,B,,(3CF,B,,(3A,F,C,(3F,C,F, | (3B,C,C,,(3CC,C,,(3F,C,C,,(3G,C,C,, | %97
 (3A,C,F,,(3C,F,,C,(3F,,C,F,,(3C,F,,C, | x8 | x8 | x8 | x8 | x8 | x8 | x8 | x8 | x8 | x8 | x8 | %109
 x8 | x8 | x8 | x8 | x8 | x8 | x8 | x8 | x8 | x8 | x8 | x8 | x8 | %122
 (3:2:6[D,,D,][C,,C,][^B,,,^B,,]DC^B, (3:2:6[D,,D,][C,,C,][B,,,B,,]DCB, | %123
 (3:2:6[=A,,=A,][G,,G,][F,,F,]DC^B, (3:2:6[^B,,B,][=B,,=B,][A,,A,]DC^B, | x6[K:treble] x2 | %125
 x2 F2 F2 F2 ||[K:A] x6[K:bass] x2 | x8 | x2[K:treble] x4[K:bass] x2 | x8 | %130
 x2[K:treble] x4[K:bass] x2 | x8 | x2[K:treble] x4[K:bass] x2 | x8 | x2[K:treble] x4[K:bass] x2 | %135
 x8 | x8 | x8 | x8 | x8 | x8 | x8 | x8 | x8 | x8 | x8 | x8 | x8 | x8 | x8 | x8 | x8 | x8 | x8 | %154
 A,,8 | A,,8 | A,,8 | A,,8 | A,,8 | A,,8 | A,,8 | A,,8 | x8 | x8 | x8 | x8 | x8 | x8 | x8 | x8 | %170
 x8 | x8 | x8 | x8 | [F,,,A,,,C,,F,,]8 | [F,,,A,,,C,,F,,]8 | [C,,G,,C,]4 [C,,G,,C,]4 | %177
 [F,,,A,,,C,,F,,]8 | [E,,F,,A,,C,E,]8 | [D,,F,,B,,D,]8 | [C,,F,,A,,C,]6 [C,,F,,A,,C,]>[A,,,A,,] | %181
 [F,,,A,,,C,,F,,]8 |[K:treble] x8 | x8 | x8 |[K:bass] x8 |[K:treble] x8 | x8 | x8 |[K:bass] x8 | %190
 x8 | x8 | x8 | x8 | x8 | x8 | x8 | x8 |[K:treble] x8 | x8 | F x x2 F x x2 | F x F x F x F x | %202
 x2[K:bass] x6 | x8 | x8 | x8 | x8 | x8 | x8 | x8 | x8 | x8 ||[K:F#] x8 | x8 | x8 | x8 | x8 | x8 | %218
 x8 | x8 | x8 | x8 | x8 | x8 | x8 | x8 | x8 | x8 | x8 | x8 | x8 | x8 ||[K:A] x8 | x8 | x8 | x8 | %236
 x8 | x8 | x8 | x8 | x8 | x8 | x8 | x8 |] %244

